X: 24875
T: Magic Slipper, The
R: polka
M: 2/4
K: Dmajor
Af Af|ed A2|A/B/c df|ag g2|Bg Bg|fe A>f|ed cB|Aa a2:|
DF/A/ d2|cB B2|EF/A/ B2|BA FA|DF/A/ d2|cB Be/f/|ge ce|1 d2 d2:|2 d2 cB||

